X: 17861
T: Horologist's, The
R: reel
M: 4/4
K: Eminor
G>EE>^D E2 (3FGA|B>ee>^d e2 (3fga|b>eg>e B>eG>e|f>BB>^A B2 (3cBA|
BEE^D E>FG>A|B>ee>^d e2 g>a|b>c'b>^a b>ge>c|a>g (3fe^d e2:|
B2 e>c B>AG>E|CEGE B,EGE|^D2 FA cBAF|G>AF>A E>AG>A|
B>Ge>c (3BBA G>E|C>GE>G B,E (3GFE|^D2 F>A c2 B>^A|1 B>cB>^A B>c|2 B>^df>B e2:|

